X:1
T:Come donna
T:Come donna
T:Jacques Arcadelt
T:Source : Il primo libro di madrigali a 3voci---Venetia---A.Gardano---1559. Editor : André Vierendeels (22/10/14)
C:Jacques Arcadelt
%%score [ 1 2 3 ]
L:1/8
Q:1/4=120
M:2/2
K:C
V:1 treble nm="Canto" snm="C"
V:2 treble nm="Alto" snm="A"
V:3 treble-8 nm="Tenor" snm="T"
V:1
 z8 | z8 | z8 | A4 A4 | B4 A3 B | cB cd e2 f2- | f2 e4 d2 | e8 | z2 e2 e2 e2 | g2 g2 f2 e2 | %10
w: |||Co- me|don- * *|* * * * na pos-||s'io|sen- za voi|lie- t'ha- ver l'al-|
"^#" ed d4 c2 | d8 | z2 A2 A2 G2 | A2 B2 c4 | B2 e2 e2 c2 | d2 e2 f4 | e4 d2 c2 | B4 A2 A2 | %18
w: m'e'l de- si- *|o|se ben si|nu- tre'l co-|re, lon- tan da|voi fra piu|dol- ci pen-|sie- ri ch'in|
 A2 c2 B2 A2- | AB cd e2 f2- | f2 ed c3 d | ef g3 f ed | c2 d2 B4 | A8 | z4 z2 A2 | A2 A2 G2 G2 | %26
w: al- tr'an- chor a-|* * * * * scen-|* * * des- *|* * ser _ _ _|_ gia- ma-|i,|cre-|a- ti sol dal|
 F3 G A2 A2 | G2 F2 E4 | D4 z2 A2 | A2 A2 c2 d2 | e2 f4 e2- | e2 d2 e4 | d2 c2 B4 | A4 z2 c2 | %34
w: vo- * * str'al-|to va- lo-|re, glioc-|chi che pri- vi|son de glioc-|* chi ve-||ri, e|
 B2 A2 B2 c2 | cB AG F2 c2 | B2 A2 B2 c2 | d6 c2 |"^#" B2 A4 G2 | A2 A2 A2 A2 | B2 c2 d2 d2 | %41
w: dei lor mag- gior|be- * * * ne, ne|por- gon tan- te|pe- *||ne, che'l cor las-|sa'in pen- sier leg-|
 c3 d e2 f2- | f2 e4 d2 | e8 | z2 A2 A2 A2 | F2 G2 E4 | D4 z2 A2 | B2 A2 A2 G2 | A2 A2 z2 A2 | %49
w: gia _ _ dri'e|_ ga- *|i,|e per man-|co mar- ti-|re, e|leg- ge di mo-|ri- re, dun-|
 c2 A2 c3 d | e2 e2 e2 e2 | d2 c2 B4 | A8 |: z8 | z2 A2 A2 A2 | c2 c2 GA Bc | dc de f2 e2 | %57
w: que co- me pos-|s'io dun- que co-|me pos- s'i-|o,||sen- za voi|lie- t'ha- ver _ _ _|_ _ _ _ _ l'al-|
 ed d4 c2 | d4 z4 |1 z8 :|2 ed d4 c2 || d8- | d8 |] %63
w: m'el de- si- *|re,||m'el de- si- *|re.|_|
V:2
 E8 | E4 F4 | E2 C2 D3 E | F2 E4 F2 | D2 F4 ED | E2 A4 F2- | F2 G2 A4 | z2 G2 A2 A2 | c2 c2 G3 A | %9
w: Co-|me don-|na pos- s'i- *|* o, co-|me don- * *|na pos- s'i-|* * o|sen- za voi|lie- t'ha- ver _|
 B4 A4 | G2 F2 E4 | D4 z2 D2 | D2 C2 D3 E | F2 G3 E A2- | AG/F/ G2 A4 | z2 A2 A2 F2 | %16
w: _ l'al-|m'e'l de- si-|o se|ben si nu- *|* tre'l _ co-|* * * * re,|lon- tan da|
 G2 A2 B2 A2- | A2 G2 A3 G | F2 E2 F4 | E2 A2 A2 A2 | F3 G AB c2- | c2 BA G2 c2- |"^#" cB A4 G2 | %23
w: voi fra piu dol-|* ci pen- *|* * sie-|ri, ch'in al- tr'an-|chor _ _ _ a-|* * * scen- des-|* ser gia- ma-|
 A4 z2 E2 | E2 E2 D2 D2 | C3 D E2 D2- | DC DE F2 E2- |"^#" ED D4 C2 | D2 D2 D2 D2 | F3 G A2 B2 | %30
w: i, cre-|a- ti sol dal|vo- * * str'al-|* * * * to va-|* * lo- *|re, glioc- chi che|pri- * * vi|
 c2 A2 A2 G2 | F4 E3 F | G2 A4 G2 | A4 z2 E2 | F2 A2 A2 G2 | A2 A2 z2 E2 | F2 A2 A2 G2 | A6 G2 | %38
w: son de glioc- chi|ve- * *||ri, e|dei lor mag- gior|be- ne, ne|por- gon tan- te|pe- *|
 F2 E2 D4 | z2 F2 E2 F2 | G2 E2 F2 F2 | E2 A2 G2 A2- | A2 G2 F4 | E4 z2 A2 | G2 F2 E4 | D2 D4 C2 | %46
w: * * ne,|che'l cor las-|sa'in pen- sier leg-|gia- dri'e ga- *||i, e|per man- co|mar- ti- *|
 D2 D2 D2 F2 | E2 E2 D4 | E4 z4 | A2 c2 A2 c2 | z2 CD EF GA |"^#" B2 A4 G2 | A4 z2 E2 |: %53
w: re, e leg- ge|di mo- ri-|re,|dun- que co- me|pos- * * * * *|* s'i- *|o, sen-|
 E2 E2 G2 G2 | D3 E FG A2- | A2 GF EF GA | B4 A4 | G2 F2 E4 | D2 D2 D2 D2 |1 F2 F2 C2 E2 :|2 %60
w: za voi lie- t'ha-|ver _ _ _ _|_ _ _ _ _ _ _|* l'al-|m'el de- si-|re, sen- za voi|lie- t'ha- ver sen-|
 G2 F2 E4 || D8- | D8 |] %63
w: m'el de- si-|re.|_|
V:3
 z8 | A8 | A4 B4 | A3 B c2 d2 | G2 d4 cB | A3 B c2 d2- | d2 c2 f4 | e4 z2 A2 | A2 A2 c2 c2 | %9
w: |me|don- na|* * pos- s'i-|o * * *|||sen- za|voi lie- t'ha- ver|
 GA Bc d2 A2 | c2 d2 A2 A2 | z2 G2 G2 F2 | G2 A2 B4 | A2 e2 e2 c2 | d2 e2 f3 e | d2 c2 d4 | %16
w: l'al- _ _ _ _ m'e'l|de- si- o se|ben si nu-|tre'l co- re,|lon- tan da voi|fra piu dol- ci|pen- sie- ri,|
 c2 c2 G2 A2 | e3 d c2 d2- | d2 c2 d4 | A3 B c2 d2- | de f4 ed | c3 d e2 c2 | f2 f2 e2 e2 | %23
w: fra pu dol- ci|pen- _ _ sie-|* ri, ch'in|al- _ tr'an- chor|* * a- _ _|_ scen- des- ser|gia- ma- i, cre-|
 z2 A2 A2 A2 | G2 G2 F3 G | AG AB c2 G2 | _B2 B2 A3 B |"^-natural" c2 d2 A4 | D8- | D4 z4 | %30
w: a- ti sol|dal vo- str'al- *|* * * * * to|va- lo- re, *||clioc-|_|
 z2 D2 F2 G2 | A2 B2 c2 c2 | B2 A2 e3 d | c2 d4 c2 | d4 z2 e2 | f3 e d2 c2 | d2 d2 z2 e2 | f6 e2 | %38
w: chi che pri-|vi son de glioc-|chi ve- ri, *||e dei|lor mag- gior be-|ne, ne por-|gon tan-|
 d2 c2 B4 | A2 d2 c2 d2 | G2 A2 DE FG | A3 B c2 F2- | F2 G2 A2 B2 |"^#" c4 z2 A2 | B2 d2 d2 c2 | %45
w: te pe- ne,|ch'el cor las- sa'in|pen- sier leg- _ _ _|_ _ _ gia-|* dri'e ga- i,|e per|man- co mar- ti-|
 d2 G2 z2 A2 | B3 A G2 F2 | G2 A2 B4 | A8- | A4 z2 A2 | c2 A2 c3 c | G2 A2 E4 | z2 A2 A2 A2 |: %53
w: re, e leg-|ge di mo- ri-|re, * *|dun-|_ que|co- me pos- s'i-|o * sen-|za voi lie-|
"^#" c2 c2 G3 A | Bc d4 cB |"^#" A3 B c2 G2- | GA Bc d2 A2 | c2 d2 A4 | D8 |1 z2 A2 A2 A2 :|2 %60
w: t'ha- ver l'al- _|_ _ _ _ _||* * * * * m'el|de- si- re,|sen-|za voi m'el-|
 c2 d2 A3 G || F2 G4 FE | D8 |] %63
w: de- si- re. *|||

